X:1
T:Exactly Like You
C:Jimmy McHugh / Dorothy Fields
R:(Med. Swing)
M:4/4
L:1/4
K:C
"C6" eBdA| cc3|"D7" eBdA| c4 |
"Dm7" BF AE|"G7" GG2 G|"C6" cCCC-|"Dm7" C2"G7" z2||
"C6" eBdA| cc3|"D7" eBdA| c4 |
"Dm7" BF AE|"G7" GG2 G|"C6" cCCC-|"C7" CDEG||
"F6" ddd2-|"Bb7" d^ce/2d/2=c/2B/2|"C6" ccc2-|"Am7" c ABc |
"Dm7" fff2-|"Fm6" feg/2f/2e/2d/2|"Em7" ee"Ebo7"BB|"Dm7"dd"G7" AG |
"C6" eBdA| cc3|"D7" eBdA| c4 |
"Dm7" BF AE|"G7" GG2 G|"C6" cCCC-|"(Dm7" C2"G7)" z2|]
